X: 45
T:Borey,A. HA.044
T:Bourree,aka. HA.044
M:C
L:1/4
Q:100
S:Henry Atkinson's original MS,Hartburn,N'umberland,1694.
R:Boure
O:England
A:Hartburn,Northumberland
H:1/4
Z:vmp.Chris Partington.Jan.2004
K:C
G|cdef|g/f/ g/a/gG|cde"#"f|g3||!
d/e/|f>ede|^c>BAd|GcB>c|d/c/ d/e/ d e/f/|!
"qu's"f>ede|c>BAd|GcdB|c3|]
